X:61
T:Gan Ainm
R:Hornpipe
S:Unknown flute player
D:Clare FM broadcast. 
H:Followed by 'The Hills Of Coore'
M:4/4
Z:Bernie Stocks
K:G
|: G2BG FGAF | GABd gdB2 | cBce dcBc | ADFA dB(3cBA | GdBG FdAF | 
GABd gdB2 | ecAG FAdF | AGGF G4 :: dGBg g2fg | edce dcBA | AGAB cBce | 
afge d2Bc | dGBg g2fg | edef gdBd | ecAG FAdF | AGGF G4 :|
<end>
<start>
